X: 101
M: C|
L: 1/8
K: F
V: 1
|:\
fcfg (f/g/a) (Tgf) | ecgc acgc |
fcfg (f/g/a) (Tgf) | cfeg f/f/f f2 |\
fcfg (f/g/a) (Tgf) | g>fga bag(a |\
fd)cB A2(Tf>d) | cABG F/F/F F2 |]
V: 2 clef=bass middle=d
|:\
f2f2 f2f2 | f2f2 g2g2 |\
f2f2 f2f2 | c2c2 F2F2 :|\
f2f2 f2f2 | c2c2 c2c2 |
f2f2 f2f2 | c2c2 F2F2 |\
f2f2 f2f2 | g2g2 g2g2 |\
f2f2 f2B2 | c2c2 F2F2 |]

